public/images/hashed/1f2c56301a6c82a637a9994d5beabc9e.svg

<?xml version="1.0" encoding="UTF-8"?>
<svg width="80px" height="80px" viewBox="0 0 80 80" version="1.1" xmlns="http://www.w3.org/2000/svg" xmlns:xlink="http://www.w3.org/1999/xlink">
    <!-- Generator: Sketch 64 (93537) - https://sketch.com -->
    <title>Icon-Architecture/64/Arch_Amazon-EMR_64</title>
    <desc>Created with Sketch.</desc>
    <defs>
        <linearGradient x1="0%" y1="100%" x2="100%" y2="0%" id="linearGradient-1">
            <stop stop-color="#4D27A8" offset="0%"></stop>
            <stop stop-color="#A166FF" offset="100%"></stop>
        </linearGradient>
    </defs>
    <g id="Icon-Architecture/64/Arch_Amazon-EMR_64" stroke="none" stroke-width="1" fill="none" fill-rule="evenodd">
        <g id="Icon-Architecture-BG/64/Analytics" transform="translate(0.504212, 0.000000)" fill="url(#linearGradient-1)">
            <rect id="Rectangle" x="0" y="0" width="80" height="80"></rect>
        </g>
        <path d="M64.815421,47.6882476 C64.0242771,46.8962435 62.9860884,46.500742 61.9468994,46.500742 C60.9077105,46.500742 59.8695217,46.8962435 59.0783779,47.6882476 C58.3122386,48.45522 57.8891617,49.4755136 57.8891617,50.5598884 C57.8891617,51.6442633 58.3122386,52.6645568 59.0783779,53.4315293 C60.6606656,55.0145363 63.2331333,55.0145363 64.815421,53.4315293 C66.3967085,51.847521 66.3967085,49.2712546 64.815421,47.6882476 L64.815421,47.6882476 Z M56.2868703,48.4101629 C56.5769231,47.6421892 57.022004,46.9362942 57.6101109,46.3315275 L55.4567194,42.2283252 L52.7752319,47.299755 L56.2868703,48.4101629 Z M49.8847063,48.4852581 L38.0865612,44.7545281 C37.4544463,46.370577 36.4922713,47.8854977 35.1900346,49.1891505 C35.0260047,49.3523575 34.8499727,49.4965403 34.6799418,49.6497345 L39.8828878,56.8768975 C40.8660666,56.2240698 42.0162757,55.8736255 43.2214948,55.8736255 C44.0896527,55.8736255 44.9268049,56.0608629 45.6969449,56.4063008 L49.8847063,48.4852581 Z M47.2782324,61.9363121 C47.2782324,60.8519373 46.8561557,59.8316437 46.0900164,59.0646713 C45.3238771,58.2987001 44.3046918,57.8761644 43.2214948,57.8761644 C42.1382979,57.8761644 41.1201127,58.2987001 40.3539734,59.0646713 C39.5878342,59.8316437 39.1647572,60.8519373 39.1647572,61.9363121 C39.1647572,63.0206869 39.5878342,64.0409805 40.3539734,64.8079529 C41.1201127,65.5749254 42.1382979,65.9974611 43.2214948,65.9974611 C44.3046918,65.9974611 45.3238771,65.5749254 46.0900164,64.8079529 C46.8561557,64.0409805 47.2782324,63.0206869 47.2782324,61.9363121 L47.2782324,61.9363121 Z M33.7757774,47.7723542 C38.0655574,43.4779095 38.0655574,36.4910512 33.7757774,32.1966064 C31.6303873,30.0498847 28.8128751,28.9765238 25.9953628,28.9765238 C23.1778505,28.9765238 20.3613384,30.0488834 18.2159484,32.1966064 C13.9261684,36.4910512 13.9261684,43.4779095 18.2159484,47.7723542 C22.5057283,52.066799 29.4859975,52.066799 33.7757774,47.7723542 L33.7757774,47.7723542 Z M34.6639389,30.3052084 C34.8389707,30.4624077 35.0210038,30.6115968 35.1900346,30.7808114 C36.4392617,32.0313969 37.3764321,33.4762288 38.0105474,35.0181838 L49.7636843,31.3845769 L45.6799418,23.6027106 C44.9158029,23.9441435 44.0826514,24.1273758 43.2214948,24.1273758 C42.0092744,24.1273758 40.852064,23.7739277 39.8678851,23.1140911 L34.6639389,30.3052084 Z M39.1647572,18.0646892 C39.1647572,19.149064 39.5878342,20.1683563 40.3539734,20.9353287 C41.1201127,21.7023011 42.1382979,22.1248368 43.2214948,22.1248368 C44.3046918,22.1248368 45.3238771,21.7023011 46.0900164,20.9353287 C46.8561557,20.1683563 47.2782324,19.149064 47.2782324,18.0646892 C47.2782324,16.9793131 46.8561557,15.9600207 46.0900164,15.1920471 C45.3238771,14.4250746 44.3046918,14.0025389 43.2214948,14.0025389 C42.1382979,14.0025389 41.1201127,14.4250746 40.3539734,15.1920471 C39.5878342,15.9600207 39.1647572,16.9793131 39.1647572,18.0646892 L39.1647572,18.0646892 Z M38.6646663,42.837097 L50.8358793,46.6859769 L54.3295145,40.0806022 L50.7108565,33.1878632 L38.6156574,36.9266034 C39.0817421,38.8680649 39.0997454,40.8896279 38.6646663,42.837097 L38.6646663,42.837097 Z M52.6562102,32.5861002 L55.4627205,37.9348817 L58.0951991,32.9555687 C57.9531733,32.8364176 57.7981451,32.7372919 57.6641207,32.6031218 C57.2820513,32.2206369 56.9619931,31.7930948 56.6999454,31.3365159 L52.6562102,32.5861002 Z M57.8891617,28.3146847 C57.8891617,29.4000608 58.3122386,30.4193531 59.0783779,31.1873268 C60.6606656,32.7703338 63.2331333,32.7703338 64.815421,31.1873268 C66.3967085,29.6033185 66.3967085,27.0270522 64.815421,25.4440451 C64.0242771,24.652041 62.9860884,24.2565395 61.9468994,24.2565395 C60.9077105,24.2565395 59.8695217,24.652041 59.0783779,25.4440451 C58.3122386,26.2110175 57.8891617,27.2303099 57.8891617,28.3146847 L57.8891617,28.3146847 Z M66.2296781,46.2724526 C68.5901073,48.6364498 68.5901073,52.4833271 66.2296781,54.8473243 C65.0484634,56.0298235 63.4981815,56.6205725 61.9468994,56.6205725 C60.3956174,56.6205725 58.8443353,56.0298235 57.6641207,54.8473243 C56.5199127,53.701872 55.888798,52.1789412 55.888798,50.5598884 C55.888798,50.5018148 55.8957992,50.4447424 55.8977996,50.3866688 L51.8240589,49.0990363 L47.369249,57.5257201 C47.413257,57.5677734 47.4602655,57.6058217 47.5042735,57.6488763 C48.6484815,58.7943285 49.2785961,60.3172594 49.2785961,61.9363121 C49.2785961,63.5563661 48.6484815,65.079297 47.5042735,66.223748 C46.3610656,67.3692002 44.8387889,68 43.2214948,68 C41.6042008,68 40.0829242,67.3692002 38.9397163,66.223748 C37.7945081,65.079297 37.1643935,63.5563661 37.1643935,61.9363121 C37.1643935,60.5886034 37.6074741,59.3119848 38.4136207,58.2596506 L33.102655,50.8832985 C30.952264,52.2890808 28.4748136,52.9949758 25.9953628,52.9949758 C22.6657574,52.9949758 19.336152,51.7263674 16.8016912,49.1891505 C11.7327696,44.1137156 11.7327696,35.8562463 16.8016912,30.7808114 C21.2174941,26.3592054 28.0467358,25.7934882 33.0846518,29.0756495 L38.4026187,21.7263316 C37.6034734,20.6770012 37.1643935,19.405389 37.1643935,18.0646892 C37.1643935,16.4446352 37.7955083,14.9217043 38.9397163,13.776252 C40.0829242,12.6307998 41.6042008,12 43.2214948,12 C44.8387889,12 46.3610656,12.6307998 47.5042735,13.776252 C48.6484815,14.9217043 49.2785961,16.4446352 49.2785961,18.0646892 C49.2785961,19.6837419 48.6484815,21.2066727 47.5042735,22.3511237 C47.457265,22.3991847 47.4042553,22.441238 47.3552464,22.4882977 L51.709038,30.7828139 L55.998818,29.4571332 C55.9268049,29.0846609 55.888798,28.7031772 55.888798,28.3146847 C55.888798,26.695632 56.5199127,25.1727011 57.6641207,24.0282501 C60.0255501,21.6632516 63.8682488,21.6632516 66.2296781,24.0282501 C68.5901073,26.391246 68.5901073,30.2381233 66.2296781,32.6031218 C65.0484634,33.7846198 63.4981815,34.37637 61.9468994,34.37637 C61.223768,34.37637 60.503637,34.2341898 59.8185125,33.9778648 L56.5899254,40.083606 L59.2544099,45.1590409 C61.5218221,44.029609 64.342335,44.3840584 66.2296781,46.2724526 L66.2296781,46.2724526 Z M26.9955446,38.9832109 L31.9964539,38.9832109 L31.9964539,40.9857498 L26.9955446,40.9857498 L26.9955446,45.9920971 L24.9951809,45.9920971 L24.9951809,40.9857498 L19.9942717,40.9857498 L19.9942717,38.9832109 L24.9951809,38.9832109 L24.9951809,33.9768635 L26.9955446,33.9768635 L26.9955446,38.9832109 Z" id="Amazon-EMR_Icon_64_Squid" fill="#FFFFFF"></path>
    </g>
</svg>

<svg xmlns="http://www.w3.org/2000/svg" width="80" height="80"><defs><linearGradient id="a" x1="0%" x2="100%" y1="100%" y2="0%"><stop offset="0%" stop-color="#4D27A8"/><stop offset="100%" stop-color="#A166FF"/></linearGradient></defs><g fill="none" fill-rule="evenodd"><path fill="url(#a)" d="M0 0h80v80H0z" transform="translate(.504)"/><path fill="#FFF" d="M64.815 47.688a4.04 4.04 0 0 0-2.868-1.187 4.04 4.04 0 0 0-2.869 1.187 4.039 4.039 0 0 0-1.189 2.872 4.059 4.059 0 0 0 6.926 2.872 4.07 4.07 0 0 0 0-5.744Zm-8.528.722a6.032 6.032 0 0 1 1.323-2.078l-2.153-4.104-2.682 5.072 3.512 1.11Zm-6.402.075-11.798-3.73a12.912 12.912 0 0 1-2.897 4.434c-.164.163-.34.308-.51.46l5.203 7.228a6.008 6.008 0 0 1 3.338-1.003c.869 0 1.706.187 2.476.532l4.188-7.92Zm-2.607 13.451a4.038 4.038 0 0 0-1.188-2.871 4.032 4.032 0 0 0-2.869-1.189 4.03 4.03 0 0 0-2.867 1.189 4.039 4.039 0 0 0-1.19 2.871c0 1.085.424 2.105 1.19 2.872a4.026 4.026 0 0 0 2.867 1.19 4.029 4.029 0 0 0 2.869-1.19 4.038 4.038 0 0 0 1.188-2.872ZM33.776 47.772c4.29-4.294 4.29-11.28 0-15.575a10.965 10.965 0 0 0-7.78-3.22 10.959 10.959 0 0 0-7.78 3.22c-4.29 4.294-4.29 11.28 0 15.575s11.27 4.295 15.56 0Zm.888-17.467c.175.157.357.307.526.476a12.948 12.948 0 0 1 2.82 4.237l11.754-3.633-4.084-7.782a6.014 6.014 0 0 1-2.459.524 5.995 5.995 0 0 1-3.353-1.013l-5.204 7.191Zm4.5-12.24c0 1.084.424 2.103 1.19 2.87a4.026 4.026 0 0 0 2.867 1.19 4.029 4.029 0 0 0 2.869-1.19 4.035 4.035 0 0 0 1.188-2.87 4.04 4.04 0 0 0-1.188-2.873 4.029 4.029 0 0 0-2.869-1.19 4.026 4.026 0 0 0-2.867 1.19 4.04 4.04 0 0 0-1.19 2.873Zm-.5 24.772 12.172 3.849 3.494-6.605-3.62-6.893-12.094 3.739c.466 1.941.484 3.963.049 5.91Zm13.992-10.25 2.807 5.348 2.632-4.98c-.142-.119-.297-.218-.43-.352a6.043 6.043 0 0 1-.965-1.266l-4.044 1.25Zm5.233-4.272a4.059 4.059 0 0 0 6.926 2.873 4.07 4.07 0 0 0 0-5.744 4.04 4.04 0 0 0-2.868-1.187 4.04 4.04 0 0 0-2.869 1.187 4.036 4.036 0 0 0-1.189 2.87Zm8.34 17.957a6.077 6.077 0 0 1 0 8.575 6.033 6.033 0 0 1-4.282 1.774 6.031 6.031 0 0 1-4.283-1.774 6.029 6.029 0 0 1-1.775-4.287c0-.058.007-.115.009-.173l-4.074-1.288-4.455 8.427c.044.042.091.08.135.123a6.028 6.028 0 0 1 1.775 4.287c0 1.62-.63 3.143-1.775 4.288A6.013 6.013 0 0 1 43.221 68a6.01 6.01 0 0 1-4.281-1.776 6.021 6.021 0 0 1-1.776-4.288c0-1.347.443-2.624 1.25-3.676l-5.311-7.377a12.983 12.983 0 0 1-7.108 2.112c-3.33 0-6.659-1.269-9.193-3.806-5.07-5.075-5.07-13.333 0-18.408 4.415-4.422 11.245-4.988 16.283-1.705l5.318-7.35a6.016 6.016 0 0 1-1.239-3.661 6.03 6.03 0 0 1 1.776-4.289A6.01 6.01 0 0 1 43.22 12c1.618 0 3.14.63 4.283 1.776a6.028 6.028 0 0 1 1.775 4.289c0 1.619-.63 3.142-1.775 4.286-.047.048-.1.09-.149.137l4.354 8.295 4.29-1.326a6.025 6.025 0 0 1 1.665-5.429 6.057 6.057 0 0 1 8.566 0 6.077 6.077 0 0 1 0 8.575 6.037 6.037 0 0 1-4.283 1.773 6.084 6.084 0 0 1-2.128-.398l-3.23 6.106 2.665 5.075c2.268-1.13 5.088-.775 6.976 1.113Zm-39.233-7.289h5v2.003h-5v5.006h-2v-5.006h-5.002v-2.003h5.001v-5.006h2v5.006Z"/></g></svg>
